img/error.svg

<svg width="16" height="16" viewBox="0 0 16 16" fill="none" xmlns="http://www.w3.org/2000/svg">
<path fill-rule="evenodd" clip-rule="evenodd" d="M8.00005 2.05029C4.71915 2.05029 2.05005 4.71939 2.05005 8.00029C2.05005 11.2812 4.71915 13.9503 8.00005 13.9503C11.2809 13.9503 13.95 11.2812 13.95 8.00029C13.95 4.71939 11.2809 2.05029 8.00005 2.05029ZM8 15.0005C4.1402 15.0005 1 11.8603 1 8.00049C1 4.14069 4.1402 1.00049 8 1.00049C11.8598 1.00049 15 4.14069 15 8.00049C15 11.8603 11.8598 15.0005 8 15.0005Z" fill="black"/>
<path fill-rule="evenodd" clip-rule="evenodd" d="M7.9957 8.96166C7.7059 8.96166 7.4707 8.72646 7.4707 8.43666V5.34336C7.4707 5.05356 7.7059 4.81836 7.9957 4.81836C8.2855 4.81836 8.5207 5.05356 8.5207 5.34336V8.43666C8.5207 8.72646 8.2855 8.96166 7.9957 8.96166Z" fill="black"/>
<path fill-rule="evenodd" clip-rule="evenodd" d="M8.00282 11.3575C7.61572 11.3575 7.29932 11.0446 7.29932 10.6575C7.29932 10.2704 7.60942 9.95752 7.99582 9.95752H8.00282C8.38992 9.95752 8.70282 10.2704 8.70282 10.6575C8.70282 11.0446 8.38992 11.3575 8.00282 11.3575Z" fill="black"/>
</svg>

<svg width="16" height="16" viewBox="0 0 16 16" fill="none" xmlns="http://www.w3.org/2000/svg"><path fill-rule="evenodd" clip-rule="evenodd" d="M8 2.05C4.72 2.05 2.05 4.72 2.05 8c0 3.281 2.67 5.95 5.95 5.95 3.28 0 5.95-2.669 5.95-5.95 0-3.28-2.67-5.95-5.95-5.95zM8 15c-3.86 0-7-3.14-7-7s3.14-7 7-7 7 3.14 7 7-3.14 7-7 7z" fill="#000"/><path fill-rule="evenodd" clip-rule="evenodd" d="M7.996 8.962a.525.525 0 0 1-.525-.525V5.343a.525.525 0 0 1 1.05 0v3.094c0 .29-.236.525-.525.525zm.007 2.395a.702.702 0 0 1-.704-.7c0-.387.31-.7.697-.7h.007a.7.7 0 1 1 0 1.4z" fill="#000"/></svg>
